src/assets/images/atoa_brand_logo.svg

<svg width="41" height="40" viewBox="0 0 41 40" fill="none" xmlns="http://www.w3.org/2000/svg">
<path d="M1 16C1 12.2146 1.00106 9.42589 1.28843 7.28845C1.57387 5.16538 2.13351 3.75989 3.1967 2.6967C4.25989 1.63351 5.66538 1.07387 7.78845 0.788435C9.9259 0.501062 12.7146 0.5 16.5 0.5H24.5C28.2854 0.5 31.0741 0.501062 33.2116 0.788435C35.3346 1.07387 36.7401 1.63351 37.8033 2.6967C38.8665 3.75989 39.4261 5.16538 39.7116 7.28845C39.9989 9.4259 40 12.2146 40 16V24C40 27.7854 39.9989 30.5741 39.7116 32.7115C39.4261 34.8346 38.8665 36.2401 37.8033 37.3033C36.7401 38.3665 35.3346 38.9261 33.2116 39.2115C31.0741 39.4989 28.2854 39.5 24.5 39.5H16.5C12.7146 39.5 9.9259 39.4989 7.78845 39.2115C5.66538 38.9261 4.25989 38.3665 3.1967 37.3033C2.13351 36.2401 1.57387 34.8346 1.28843 32.7115C1.00106 30.5741 1 27.7853 1 24V16Z" fill="#E42646"/>
<path d="M1 16C1 12.2146 1.00106 9.42589 1.28843 7.28845C1.57387 5.16538 2.13351 3.75989 3.1967 2.6967C4.25989 1.63351 5.66538 1.07387 7.78845 0.788435C9.9259 0.501062 12.7146 0.5 16.5 0.5H24.5C28.2854 0.5 31.0741 0.501062 33.2116 0.788435C35.3346 1.07387 36.7401 1.63351 37.8033 2.6967C38.8665 3.75989 39.4261 5.16538 39.7116 7.28845C39.9989 9.4259 40 12.2146 40 16V24C40 27.7854 39.9989 30.5741 39.7116 32.7115C39.4261 34.8346 38.8665 36.2401 37.8033 37.3033C36.7401 38.3665 35.3346 38.9261 33.2116 39.2115C31.0741 39.4989 28.2854 39.5 24.5 39.5H16.5C12.7146 39.5 9.9259 39.4989 7.78845 39.2115C5.66538 38.9261 4.25989 38.3665 3.1967 37.3033C2.13351 36.2401 1.57387 34.8346 1.28843 32.7115C1.00106 30.5741 1 27.7853 1 24V16Z" stroke="#EAEEF0"/>
<g clip-path="url(#clip0_4439_19355)">
<mask id="mask0_4439_19355" style="mask-type:luminance" maskUnits="userSpaceOnUse" x="7" y="14" width="27" height="12">
<path d="M33.8464 14.6484H7.17969V25.3514H33.8464V14.6484Z" fill="white"/>
</mask>
<g mask="url(#mask0_4439_19355)">
<mask id="mask1_4439_19355" style="mask-type:luminance" maskUnits="userSpaceOnUse" x="7" y="14" width="27" height="12">
<path d="M33.8306 14.6562H7.15625V25.3592H33.8306V14.6562Z" fill="white"/>
</mask>
<g mask="url(#mask1_4439_19355)">
<path d="M25.4838 22.2294C25.5105 23.0057 25.2316 23.7616 24.7064 24.3361C24.3417 24.7394 23.8949 25.0132 23.3789 25.1829C22.9312 25.3296 22.4587 25.3868 21.9887 25.3514C21.3854 25.3084 20.8226 25.1359 20.3193 24.7938C19.9093 24.5157 19.5761 24.1394 19.3505 23.6995C19.2211 23.4552 19.1283 23.1934 19.075 22.9224C18.9894 22.4856 18.9856 22.0368 19.0636 21.5986C19.1757 20.9506 19.5034 20.359 19.9942 19.9189C20.3988 19.5478 20.878 19.3147 21.413 19.1898C21.8294 19.0925 22.2599 19.0689 22.6845 19.12C23.2233 19.1834 23.7234 19.354 24.1748 19.6568C24.4646 19.8517 24.7165 20.0972 24.9186 20.3814C25.1171 20.654 25.2676 20.9583 25.3634 21.2813C25.4314 21.5158 25.4717 21.7575 25.4834 22.0013C25.487 22.0773 25.4838 22.1533 25.4838 22.2294ZM23.6553 22.2308C23.6544 21.9588 23.6139 21.6976 23.4967 21.4523C23.3935 21.2251 23.223 21.0347 23.008 20.9069C22.5956 20.6679 22.1623 20.639 21.7159 20.7983C21.4784 20.8824 21.273 21.0379 21.128 21.2432C20.979 21.4543 20.8873 21.7002 20.8616 21.9569C20.8212 22.3167 20.848 22.6684 21.0048 23.0019C21.124 23.2647 21.3321 23.4776 21.5927 23.6034C21.9218 23.7661 22.3003 23.8 22.6533 23.6984C23.0566 23.5894 23.3457 23.3423 23.5157 22.9594C23.6185 22.7259 23.6539 22.4801 23.6553 22.2308Z" fill="white"/>
<path d="M18.0419 14.6641H16.1016V25.358H18.0419V14.6641Z" fill="white"/>
<path d="M25.8341 18.4127L26.7433 17.503L25.8341 16.5938H14.2656V18.4127H25.8341Z" fill="white"/>
<path d="M12.7005 14.6562H9.75084C9.75084 14.6562 7.184 25.2398 7.15625 25.3574C7.15625 25.352 9.30891 25.3632 9.30392 25.3574C9.43622 24.7329 9.56852 24.1124 9.70127 23.4901H12.1376C12.259 24.1133 12.3801 24.7359 12.5008 25.3579H15.2777C14.4185 21.7898 13.5594 18.2226 12.7005 14.6562ZM10.0855 21.7196C10.3896 20.2394 10.7533 18.7752 10.938 17.2767C10.9526 17.2767 10.9676 17.2772 10.9826 17.2772C11.1563 18.772 11.489 20.2384 11.7718 21.7196L10.0855 21.7196Z" fill="white"/>
<path d="M31.2478 14.6562H28.2981C28.2981 14.6562 25.7308 25.2397 25.7031 25.3574C25.7031 25.352 27.8562 25.3632 27.8508 25.3574C27.9835 24.7329 28.1158 24.1124 28.2481 23.4901H30.6845C30.8059 24.1133 30.927 24.7359 31.0477 25.3579H33.825C32.9653 21.7898 32.1062 18.2226 31.2478 14.6562ZM28.6323 21.7196C28.9364 20.2392 29.3005 18.7752 29.4847 17.2767C29.4997 17.2767 29.5143 17.2772 29.5293 17.2772C29.7034 18.772 30.0362 20.2384 30.3189 21.7196L28.6323 21.7196Z" fill="white"/>
</g>
</g>
</g>
<defs>
<clipPath id="clip0_4439_19355">
<rect width="26.6667" height="10.703" fill="white" transform="translate(7.16406 14.6484)"/>
</clipPath>
</defs>
</svg>

<svg width="41" height="40" fill="none" xmlns="http://www.w3.org/2000/svg"><path d="M1 16c0-3.785.001-6.574.288-8.712.286-2.123.846-3.528 1.909-4.591C4.26 1.634 5.665 1.074 7.788.788 9.926.501 12.715.5 16.5.5h8c3.785 0 6.574.001 8.712.288 2.123.286 3.528.846 4.591 1.909 1.064 1.063 1.623 2.468 1.909 4.591C39.999 9.426 40 12.215 40 16v8c0 3.785-.001 6.574-.288 8.712-.286 2.123-.846 3.528-1.909 4.591-1.063 1.064-2.468 1.623-4.591 1.909-2.138.287-4.927.288-8.712.288h-8c-3.785 0-6.574-.001-8.712-.288-2.123-.286-3.528-.846-4.591-1.909-1.063-1.063-1.623-2.468-1.909-4.591C1.001 30.574 1 27.785 1 24v-8z" fill="#E42646"/><path d="M1 16c0-3.785.001-6.574.288-8.712.286-2.123.846-3.528 1.909-4.591C4.26 1.634 5.665 1.074 7.788.788 9.926.501 12.715.5 16.5.5h8c3.785 0 6.574.001 8.712.288 2.123.286 3.528.846 4.591 1.909 1.064 1.063 1.623 2.468 1.909 4.591C39.999 9.426 40 12.215 40 16v8c0 3.785-.001 6.574-.288 8.712-.286 2.123-.846 3.528-1.909 4.591-1.063 1.064-2.468 1.623-4.591 1.909-2.138.287-4.927.288-8.712.288h-8c-3.785 0-6.574-.001-8.712-.288-2.123-.286-3.528-.846-4.591-1.909-1.063-1.063-1.623-2.468-1.909-4.591C1.001 30.574 1 27.785 1 24v-8z" stroke="#EAEEF0"/><g clip-path="url(#a)"><mask id="b" style="mask-type:luminance" maskUnits="userSpaceOnUse" x="7" y="14" width="27" height="12"><path d="M33.846 14.648H7.18v10.703h26.666V14.648z" fill="#fff"/></mask><g mask="url(#b)"><mask id="c" style="mask-type:luminance" maskUnits="userSpaceOnUse" x="7" y="14" width="27" height="12"><path d="M33.83 14.656H7.157V25.36h26.675V14.656z" fill="#fff"/></mask><g mask="url(#c)" fill="#fff"><path d="M25.484 22.23a2.97 2.97 0 0 1-.778 2.106 3.022 3.022 0 0 1-1.327.847c-.448.147-.92.204-1.39.168a3.333 3.333 0 0 1-1.67-.557 2.948 2.948 0 0 1-.968-1.095 2.825 2.825 0 0 1-.276-.777 3.601 3.601 0 0 1-.011-1.323c.112-.648.44-1.24.93-1.68a3.097 3.097 0 0 1 1.419-.73c.416-.096.847-.12 1.271-.069a3.33 3.33 0 0 1 1.49.537c.29.195.543.44.745.724a2.958 2.958 0 0 1 .564 1.62c.004.076 0 .152 0 .228zm-1.829 0c0-.271-.041-.532-.158-.778a1.223 1.223 0 0 0-.489-.545 1.477 1.477 0 0 0-1.292-.109c-.238.084-.443.24-.588.445-.149.211-.24.457-.266.714-.04.36-.014.711.143 1.045.119.263.327.476.588.601.329.163.707.197 1.06.095.404-.109.693-.356.863-.739.103-.233.138-.479.14-.728zM18.042 14.664h-1.94v10.694h1.94V14.664z"/><path d="m25.834 18.413.91-.91-.91-.91H14.266v1.82h11.568zM12.7 14.656H9.75L7.157 25.357c0-.005 2.153.006 2.148 0L9.7 23.49h2.437l.363 1.868h2.777L12.7 14.656zm-2.614 7.064c.304-1.48.667-2.945.852-4.443h.045c.173 1.495.506 2.961.789 4.443h-1.687zM31.248 14.656h-2.95l-2.595 10.701c0-.005 2.153.006 2.148 0l.397-1.867h2.436l.364 1.868h2.777l-2.577-10.702zm-2.616 7.064c.304-1.48.668-2.945.853-4.443h.044c.174 1.495.507 2.961.79 4.443h-1.687z"/></g></g></g><defs><clipPath id="a"><path fill="#fff" transform="translate(7.164 14.648)" d="M0 0h26.667v10.703H0z"/></clipPath></defs></svg>
